src/assets/svg/profile-empty.svg

<svg fill="none" height="219" viewBox="0 0 213 219" width="213" xmlns="http://www.w3.org/2000/svg" xmlns:xlink="http://www.w3.org/1999/xlink"><linearGradient id="a" gradientUnits="userSpaceOnUse" x1="32.1439" x2="137.342" y1="-10.7663" y2="207.98"><stop offset="0" stop-color="#fff"/><stop offset="1" stop-color="#c490dd"/></linearGradient><path d="m207.711 109.688c0 55.898-45.314 101.211-101.211 101.211-55.8972 0-101.21088-45.313-101.21088-101.211 0-55.8969 45.31368-101.21046 101.21088-101.21046 55.897 0 101.211 45.31356 101.211 101.21046z" fill="url(#a)" stroke="#fff" stroke-width="10.5782"/><g clip-rule="evenodd" fill-rule="evenodd"><path d="m184.207 112.511c-1.094-1.386-1.888-2.954-2.902-3.939-2.466-2.392-5.926-4.176-9.536-5.805-3.459-1.56-7.071-3.3943-10.573-4.7678-2.391-.938-4.881-1.6567-7.048-2.4877-4.925-1.8882-9.566-4.661-13.268-7.8777-1.97-1.7129-3.587-4.1333-5.389-6.2193-2.768-3.2029-5.069-6.8403-7.464-10.1581-.823-1.1402-1.855-2.1811-2.695-3.317-5.067-6.8524-9.829-13.8102-14.305-20.9382-2.21-3.52-5.14-6.849-7.67-9.9509-.947-1.16-1.612-2.4531-2.488-3.5242-1.2411-1.5177-3.366-2.4307-3.3168-4.5608 1.4452-1.3838 1.5704 1.5712 2.2805 0 .7283-1.6127-.2834-5.1525-.4147-7.0485-.3869-5.5861-.8257-8.6889-1.6584-13.26782-.3939-2.1707-.3473-5.2907-1.4512-6.21927-2.949-2.4825328-5.9809 3.14246-7.0485 5.18273-3.1425 6.00336-5.8608 15.47216-7.0485 22.18206-.1806 1.0227.2669 2.5914-1.0366 3.1097-1.5133.2004-.4586-2.1673-1.6584-2.2804-5.6112 1.6446-11.3658 3.1459-15.1336 6.6338.0017 1.2923 1.4486 3.4561-.2073 3.9389-1.814-.6858-1.5799-3.0163-2.0731-4.5608-.5192-1.6248-1.3052-3.2815-1.8658-4.9754-1.744-5.2674-2.9645-10.5486-5.39-14.5116-.8457-1.383-1.7449-2.7452-2.9024-3.7316-5.5299 8.8184-8.0168 24.1576-6.8412 38.3522.2263 2.7347.0156 5.6258.4147 8.0851.2746 1.6956 1.6809 3.5605.8292 5.39-1.7794.7593-1.4624-2.6121-2.0731-1.6585-2.1016 11.5679-1.0642 23.3689-1.0365 34.828.0017.9778-.2376 2.2411-.2074 3.3171.1357 4.782.793 8.036 1.4512 12.024 1.2655 7.666 2.9645 13.963 5.5974 19.901.5329 1.202.9144 2.7 1.4215 3.844 39.3805 76.828 129.805 31 136.08-.328 1.239-2.869 2.027-6.101 1.809-9.942-.335-5.914-2.391-11.184-5.182-14.719z" fill="#000"/><path d="m42.1999 166.614c-.9424 4.309-2.1025 8.419-3.1097 12.646-.8422 3.534-1.8675 7.057-3.0267 10.533.5321.508 1.0702 1.01 1.6136 1.506.9726-3.104 1.8753-6.292 2.6578-9.552 2.0394-8.499 5.0722-17.343 5.5974-27.571.3809-7.433.4362-15.133.6219-23.218.7066.378.9355 1.376 1.2439 2.073.9156 2.064 1.7846 4.794 2.9023 7.048 1.3838 2.789 3.4301 5.446 5.39 8.085 1.9056 2.566 3.6893 5.208 5.8047 7.463 2.0636 2.2 4.6472 4.29 7.0485 6.22 1.2395.996 2.486 1.98 3.7316 2.902 3.8015 2.812 8.0116 5.1 12.6458 7.256 3.0544 1.421 6.2046 2.31 9.7436 3.524 3.4413 1.18 6.5544 2.59 10.1584 3.11 7.565 1.091 16.61.442 22.803-.83 6.155-1.263 12.834-2.606 18.659-4.56 1.225-.412 2.456-1.085 3.73-1.452 1.348-.387 2.693-.505 3.939-1.036 1.883-.803 3.751-1.95 5.597-2.902 1.925-.993 3.93-1.822 5.598-2.902 3.435-2.225 6.018-5.259 9.329-7.67 2.041 4.783 4.204 9.637 6.426 14.511 1.45 3.179 2.663 6.49 3.825 9.878.475-.564.943-1.134 1.406-1.709-3.001-8.421-6.48-16.33-10.207-23.925 6.428-8.848 16.178-16.138 14.719-30.682-.346-3.452-1.622-7.867-3.11-10.987-.636-1.337-1.749-2.302-2.695-3.524-.877-1.134-1.459-2.453-2.28-3.317-2.377-2.505-5.882-4.397-9.329-6.013-3.487-1.6346-7.159-3.1859-10.78-4.7675-3.725-1.6283-7.544-2.727-10.987-4.3535-6.5-3.0708-10.826-7.0693-15.135-12.2313-1.799-2.1568-3.537-4.5132-5.183-6.8412-3.324-4.7041-6.611-9.4792-9.95-13.8897-3.057-4.0382-6.139-9.2814-9.536-14.3043-1.791-2.6492-4.498-5.669-6.635-8.2924-1.064-1.3086-3.458-4.1565-3.73-5.39-.451-2.0377.093-4.2827 0-6.4266-.176-4.0011-.474-7.7966-.974-11.3916-.709.0414-1.4164.0863-2.1221.1425.3369 2.3901.5848 4.8286.8146 8.1395.1313 1.8951 1.1425 5.4358.4146 7.0485-.7092 1.5712-.8353-1.3838-2.2804 0-.0492 2.1301 2.0757 3.0431 3.3173 4.5608.876 1.0711 1.541 2.3642 2.487 3.5242 2.53 3.1019 5.46 6.4309 7.671 9.9509 4.476 7.128 9.236 14.0858 14.304 20.9382.841 1.1359 1.873 2.1768 2.695 3.317 2.395 3.3186 4.697 6.956 7.464 10.1581 1.803 2.0861 3.419 4.5073 5.389 6.2193 3.703 3.2159 8.344 5.9886 13.268 7.8777 2.167.831 4.658 1.5497 7.049 2.4877 3.502 1.3735 7.114 3.2077 10.572 4.7677 3.61 1.629 7.07 3.413 9.537 5.805 1.015.985 1.808 2.553 2.901 3.939 2.791 3.535 4.848 8.805 5.183 14.719.401 7.09-2.606 12.111-5.598 16.585-3.705 5.54-7.544 9.481-12.231 13.889-1.585 1.491-3.09 3.148-4.769 4.354-3.477 2.5-7.536 4.259-11.816 6.219-4.109 1.883-8.796 3.197-13.475 4.767-2.276.765-4.799 1.371-7.256 1.866-5.908 1.191-12.73 2.535-19.487 2.695-2.159.052-4.202-.033-6.427-.206-4.41-.344-8.9073-2.213-13.2677-3.732-4.4062-1.535-8.764-2.868-12.2313-4.769-7.5573-4.14-13.8059-8.778-19.4871-14.511-2.936-2.964-5.016-6.299-7.4631-9.537-2.587-3.422-4.0097-7.144-5.8046-11.194-2.6329-5.939-4.3319-12.235-5.5974-19.902-.6582-3.988-1.3155-7.242-1.4512-12.024-.0302-1.076.2099-2.3391.2073-3.3169-.0276-11.459-1.065-23.2601 1.0366-34.8279.6107-.9537.2937 2.4177 2.0731 1.6584.8517-1.8295-.5546-3.6935-.8293-5.39-.399-2.4592-.1883-5.3503-.4146-8.0851-.4949-5.9783-.3325-12.1552.425-17.9668-.6677.4993-1.3285 1.0072-1.9832 1.5229-.901 7.7525-.9424 15.9801.1071 23.2851-1.5246 2.5758-1.7406 6.7056-2.0731 10.5728-.7627 8.8651-.495 16.1157-.4146 23.6333.063 5.9394-.184 11.6092.6219 16.9992.3714 2.483.7549 4.992 1.2438 7.463.4743 2.398 1.3976 4.837 1.6585 7.256.5053 4.692-.0881 9.647-.2073 14.512-.2315 9.567-.4362 19.158-2.2769 27.572z" fill="#221f20"/><path d="m60.2352 31.6546c.5606 1.6939 1.3467 3.3506 1.8658 4.9754.4932 1.5445.2591 3.8741 2.0731 4.5608 1.6559-.4837.2099-2.6466.2073-3.9388 3.7678-3.488 9.5224-4.9893 15.1336-6.6339 1.1998.1131.1451 2.4808 1.6584 2.2804 1.3035-.5183.8561-2.0878 1.0366-3.1097.7385-4.1703 2.0679-9.4058 3.7229-14.2136-.6729.1391-1.3423.285-2.01.4379-1.4745 4.363-2.7071 8.9705-3.3722 12.5319-6.6357 1.173-11.9359 3.6814-16.9994 6.4266-.8128-2.2044-1.5384-4.3622-2.2804-6.6339-.3835-1.1739-.6902-2.4342-1.0322-3.7178-.6358.3248-1.2655.66-1.8935.9977.6194 1.9634 1.2163 4.0002 1.89 6.037z" fill="#221f20"/><path d="m44.2732 189.833c-.3827 2.021-.7377 4.088-1.0642 6.185.6107.484 1.2283.962 1.8502 1.434.9217-5.585 2.0723-10.916 2.9456-16.325.3101-1.924.7955-3.847 1.0365-5.805.1987-1.611.8318-3.692-.2073-5.182-2.2459.306-1.5065 3.212-1.6585 4.56-.5787 5.135-1.9357 10.027-2.9023 15.133z" fill="#221f20"/><path d="m187.938 114.373c-.637-1.338-1.749-2.302-2.695-3.525-.878-1.133-1.46-2.452-2.28-3.317-2.378-2.504-5.883-4.396-9.329-6.012-3.487-1.6347-7.159-3.186-10.78-4.7676-3.725-1.6283-7.545-2.727-10.988-4.3535-6.499-3.0708-10.826-7.0693-15.134-12.2313-1.799-2.1568-3.537-4.5133-5.183-6.8412-3.325-4.7042-6.611-9.4792-9.95-13.8897-3.057-4.0382-6.14-9.2814-9.536-14.3043-1.792-2.6493-4.499-5.6691-6.635-8.2924-1.064-1.3086-3.458-4.1566-3.731-5.39-.45-2.0377.094-4.2827 0-6.4266-.245-5.5766-.711-10.7723-1.658-15.54822-.5512-2.77967-.8423-5.68804-2.0732-8.08505-1.2784-.695352-3.0189-1.783727-4.3534-1.243859-2.9412 1.190299-4.6204 4.051169-6.2193 7.255819-2.8626 5.73731-5.6941 14.99971-6.8412 21.14551-6.6356 1.1731-11.9358 3.6815-16.9994 6.4266-.8128-2.2044-1.5384-4.3621-2.2804-6.6339-.7143-2.1854-1.148-4.6653-2.0731-7.0485-.6409-1.6507-1.8226-3.3368-3.1096-5.39-1.0184-1.6248-2.1137-4.4572-4.1462-4.3535-2.4635.1252-4.7975 6.9993-5.39 8.9143-3.3584 10.8535-4.674 25.8177-2.9024 38.1449-1.5245 2.5758-1.7405 6.7056-2.073 10.5727-.7628 8.8651-.495 16.1157-.4147 23.6333.0631 5.9394-.1839 11.6095.622 16.9995.3714 2.482.7549 4.992 1.2438 7.463.4742 2.398 1.3976 4.836 1.6585 7.256.4405 4.091.0466 8.381-.1408 12.637h1.8805c.0388-2.046.0777-4.114.1261-6.211.7066.379.9355 1.377 1.2438 2.073.5425 1.224 1.0711 2.683 1.643 4.138h2.1784c-.507-1.145-1.008-2.314-1.541-3.516-2.6328-5.938-4.3319-12.234-5.5973-19.901-.6582-3.988-1.3156-7.242-1.4512-12.024-.0302-1.076.2099-2.3394.2073-3.3172-.0276-11.459-1.065-23.2601 1.0366-34.8279.6107-.9536.2937 2.4177 2.0731 1.6585.8517-1.8295-.5546-3.6936-.8293-5.3901-.399-2.4592-.1883-5.3503-.4146-8.085-1.1747-14.1947 1.3121-29.5338 6.8412-38.3522 1.1575.9873 2.0558 2.3495 2.9023 3.7315 2.4256 3.9631 3.647 9.2443 5.3901 14.5117.5606 1.6939 1.3466 3.3506 1.8658 4.9754.4932 1.5444.2591 3.8741 2.0731 4.5608 1.6558-.4837.2099-2.6467.2073-3.9389 3.7678-3.488 9.5224-4.9892 15.1335-6.6339 1.1998.1132.1452 2.4808 1.6585 2.2804 1.3035-.5182.856-2.0878 1.0366-3.1096 1.1877-6.7099 3.906-16.1788 7.0485-22.1821 1.0676-2.04027 4.0995-7.6652566 7.0485-5.18273 1.103.92857 1.0573 4.04771 1.4511 6.21928.8327 4.57985 1.2715 7.68255 1.6585 13.26775.1313 1.8952 1.143 5.4359.4146 7.0486-.7091 1.5712-.8353-1.3838-2.2804 0-.0492 2.1301 2.0757 3.0431 3.3168 4.5608.876 1.0711 1.541 2.3641 2.488 3.5242 2.53 3.1019 5.46 6.4309 7.67 9.9508 4.476 7.128 9.237 14.0859 14.305 20.9383.84 1.1359 1.872 2.1767 2.695 3.3169 2.394 3.3187 4.696 6.9561 7.464 10.1582 1.802 2.086 3.419 4.5072 5.389 6.2193 3.702 3.2158 8.343 5.9886 13.268 7.8777 2.167.831 4.657 1.5497 7.048 2.4877 3.503 1.3734 7.114 3.2078 10.573 4.7678 3.61 1.629 7.07 3.413 9.536 5.805 1.015.985 1.809 2.553 2.902 3.939 2.791 3.535 4.847 8.805 5.182 14.719.218 3.842-.57 7.073-1.809 9.942h1.983c1.297-3.404 1.942-7.25 1.485-11.809-.346-3.452-1.622-7.866-3.109-10.986z" fill="#221f20"/><path d="m181.305 171.791c-2.223-4.874-4.385-9.728-6.427-14.512-3.31 2.412-5.892 5.446-9.328 7.671-1.668 1.079-3.672 1.909-5.599 2.901-1.846.954-3.714 2.101-5.596 2.903-1.247.531-2.592.649-3.939 1.036-1.275.366-2.505 1.039-3.731 1.451-5.823 1.956-12.503 3.297-18.658 4.561-6.195 1.272-15.239 1.92-22.804.829-3.603-.52-6.7164-1.929-10.1577-3.109-3.539-1.214-6.6892-2.105-9.7436-3.525-4.6342-2.156-8.8443-4.444-12.6458-7.255-1.2465-.922-2.4921-1.907-3.7316-2.903-2.4013-1.929-4.9849-4.019-7.0485-6.219-2.1154-2.255-3.8991-4.897-5.8047-7.463-1.9599-2.639-4.0062-5.296-5.39-8.085-1.1177-2.253-1.9876-4.984-2.9023-7.049-.3084-.696-.5373-1.694-1.2439-2.073-.1857 8.086-.2401 15.786-.6219 23.219-.5252 10.228-3.558 19.072-5.5974 27.571-.7825 3.26-1.6852 6.447-2.6578 9.552 1.7871 1.637 3.6322 3.21 5.5317 4.718.3256-2.096.6815-4.164 1.0642-6.185.9665-5.106 2.3235-9.998 2.9023-15.133.152-1.35-.5874-4.255 1.6585-4.561 1.0391 1.49.4059 3.572.2073 5.182-.241 1.958-.7256 3.881-1.0366 5.805-.8733 5.409-2.0247 10.74-2.9455 16.325 17.1617 12.996 38.5448 20.71 61.7313 20.71 31.439 0 59.563-14.179 78.339-36.486-1.163-3.386-2.376-6.697-3.825-9.876z" fill="#000"/></g></svg>

<svg width="213" height="219" viewBox="0 0 213 219" fill="none" xmlns="http://www.w3.org/2000/svg">
<path d="M207.711 109.688C207.711 165.586 162.397 210.899 106.5 210.899C50.6028 210.899 5.28912 165.586 5.28912 109.688C5.28912 53.7911 50.6028 8.47754 106.5 8.47754C162.397 8.47754 207.711 53.7911 207.711 109.688Z" fill="url(#paint0_linear_265_9054)" stroke="white" stroke-width="10.5782"/>
<path fill-rule="evenodd" clip-rule="evenodd" d="M184.207 112.511C183.113 111.125 182.319 109.557 181.305 108.572C178.839 106.18 175.379 104.396 171.769 102.767C168.31 101.207 164.698 99.3727 161.196 97.9992C158.805 97.0612 156.315 96.3425 154.148 95.5115C149.223 93.6233 144.582 90.8505 140.88 87.6338C138.91 85.9209 137.293 83.5005 135.491 81.4145C132.723 78.2116 130.422 74.5742 128.027 71.2564C127.204 70.1162 126.172 69.0753 125.332 67.9394C120.265 61.087 115.503 54.1292 111.027 47.0012C108.817 43.4812 105.887 40.1522 103.357 37.0503C102.41 35.8903 101.745 34.5972 100.869 33.5261C99.6279 32.0084 97.503 31.0954 97.5522 28.9653C98.9974 27.5815 99.1226 30.5365 99.8327 28.9653C100.561 27.3526 99.5493 23.8128 99.418 21.9168C99.0311 16.3307 98.5923 13.2279 97.7596 8.64898C97.3657 6.47828 97.4123 3.35828 96.3084 2.42971C93.3594 -0.0528228 90.3275 5.57217 89.2599 7.61244C86.1174 13.6158 83.3991 23.0846 82.2114 29.7945C82.0308 30.8172 82.4783 32.3859 81.1748 32.9042C79.6615 33.1046 80.7162 30.7369 79.5164 30.6238C73.9052 32.2684 68.1506 33.7697 64.3828 37.2576C64.3845 38.5499 65.8314 40.7137 64.1755 41.1965C62.3615 40.5107 62.5956 38.1802 62.1024 36.6357C61.5832 35.0109 60.7972 33.3542 60.2366 31.6603C58.4926 26.3929 57.2721 21.1117 54.8466 17.1487C54.0009 15.7657 53.1017 14.4035 51.9442 13.4171C46.4143 22.2355 43.9274 37.5747 45.103 51.7693C45.3293 54.504 45.1186 57.3951 45.5177 59.8544C45.7923 61.55 47.1986 63.4149 46.3469 65.2444C44.5675 66.0037 44.8845 62.6323 44.2738 63.5859C42.1722 75.1538 43.2096 86.9548 43.2373 98.4139C43.239 99.3917 42.9997 100.655 43.0299 101.731C43.1656 106.513 43.8229 109.767 44.4811 113.755C45.7466 121.421 47.4456 127.718 50.0785 133.656C50.6114 134.858 50.9929 136.356 51.5 137.5C90.8805 214.328 181.305 168.5 187.58 137.172C188.819 134.303 189.607 131.071 189.389 127.23C189.054 121.316 186.998 116.046 184.207 112.511Z" fill="black"/>
<path fill-rule="evenodd" clip-rule="evenodd" d="M42.1999 166.614C41.2575 170.923 40.0974 175.033 39.0902 179.26C38.248 182.794 37.2227 186.317 36.0635 189.793C36.5956 190.301 37.1337 190.803 37.6771 191.299C38.6497 188.195 39.5524 185.007 40.3349 181.747C42.3743 173.248 45.4071 164.404 45.9323 154.176C46.3132 146.743 46.3685 139.043 46.5542 130.958C47.2608 131.336 47.4897 132.334 47.7981 133.031C48.7137 135.095 49.5827 137.825 50.7004 140.079C52.0842 142.868 54.1305 145.525 56.0904 148.164C57.996 150.73 59.7797 153.372 61.8951 155.627C63.9587 157.827 66.5423 159.917 68.9436 161.847C70.1831 162.843 71.4296 163.827 72.6752 164.749C76.4767 167.561 80.6868 169.849 85.321 172.005C88.3754 173.426 91.5256 174.315 95.0646 175.529C98.5059 176.709 101.619 178.119 105.223 178.639C112.788 179.73 121.833 179.081 128.026 177.809C134.181 176.546 140.86 175.203 146.685 173.249C147.91 172.837 149.141 172.164 150.415 171.797C151.763 171.41 153.108 171.292 154.354 170.761C156.237 169.958 158.105 168.811 159.951 167.859C161.876 166.866 163.881 166.037 165.549 164.957C168.984 162.732 171.567 159.698 174.878 157.287C176.919 162.07 179.082 166.924 181.304 171.798C182.754 174.977 183.967 178.288 185.129 181.676C185.604 181.112 186.072 180.542 186.535 179.967C183.534 171.546 180.055 163.637 176.328 156.042C182.756 147.194 192.506 139.904 191.047 125.36C190.701 121.908 189.425 117.493 187.937 114.373C187.301 113.036 186.188 112.071 185.242 110.849C184.365 109.715 183.783 108.396 182.962 107.532C180.585 105.027 177.08 103.135 173.633 101.519C170.146 99.8844 166.474 98.3331 162.853 96.7515C159.128 95.1232 155.309 94.0245 151.866 92.398C145.366 89.3272 141.04 85.3287 136.731 80.1667C134.932 78.0099 133.194 75.6535 131.548 73.3255C128.224 68.6214 124.937 63.8463 121.598 59.4358C118.541 55.3976 115.459 50.1544 112.062 45.1315C110.271 42.4823 107.564 39.4625 105.427 36.8391C104.363 35.5305 101.969 32.6826 101.697 31.4491C101.246 29.4114 101.79 27.1664 101.697 25.0225C101.521 21.0214 101.223 17.2259 100.723 13.6309C100.014 13.6723 99.3066 13.7172 98.6009 13.7734C98.9378 16.1635 99.1857 18.602 99.4155 21.9129C99.5468 23.808 100.558 27.3487 99.8301 28.9614C99.1209 30.5326 98.9948 27.5776 97.5497 28.9614C97.5005 31.0915 99.6254 32.0045 100.867 33.5222C101.743 34.5933 102.408 35.8864 103.354 37.0464C105.884 40.1483 108.814 43.4773 111.025 46.9973C115.501 54.1253 120.261 61.0831 125.329 67.9355C126.17 69.0714 127.202 70.1123 128.024 71.2525C130.419 74.5711 132.721 78.2085 135.488 81.4106C137.291 83.4967 138.907 85.9179 140.877 87.6299C144.58 90.8458 149.221 93.6185 154.145 95.5076C156.312 96.3386 158.803 97.0573 161.194 97.9953C164.696 99.3688 168.308 101.203 171.766 102.763C175.376 104.392 178.836 106.176 181.303 108.568C182.318 109.553 183.111 111.121 184.204 112.507C186.995 116.042 189.052 121.312 189.387 127.226C189.788 134.316 186.781 139.337 183.789 143.811C180.084 149.351 176.245 153.292 171.558 157.7C169.973 159.191 168.468 160.848 166.789 162.054C163.312 164.554 159.253 166.313 154.973 168.273C150.864 170.156 146.177 171.47 141.498 173.04C139.222 173.805 136.699 174.411 134.242 174.906C128.334 176.097 121.512 177.441 114.755 177.601C112.596 177.653 110.553 177.568 108.328 177.395C103.918 177.051 99.4207 175.182 95.0603 173.663C90.6541 172.128 86.2963 170.795 82.829 168.894C75.2717 164.754 69.0231 160.116 63.3419 154.383C60.4059 151.419 58.3259 148.084 55.8788 144.846C53.2918 141.424 51.8691 137.702 50.0742 133.652C47.4413 127.713 45.7423 121.417 44.4768 113.75C43.8186 109.762 43.1613 106.508 43.0256 101.726C42.9954 100.65 43.2355 99.3869 43.2329 98.4091C43.2053 86.9501 42.1679 75.149 44.2695 63.5812C44.8802 62.6275 44.5632 65.9989 46.3426 65.2396C47.1943 63.4101 45.788 61.5461 45.5133 59.8496C45.1143 57.3904 45.325 54.4993 45.0987 51.7645C44.6038 45.7862 44.7662 39.6093 45.5237 33.7977C44.856 34.297 44.1952 34.8049 43.5405 35.3206C42.6395 43.0731 42.5981 51.3007 43.6476 58.6057C42.123 61.1815 41.907 65.3113 41.5745 69.1785C40.8118 78.0436 41.0795 85.2942 41.1599 92.8118C41.2229 98.7512 40.9759 104.421 41.7818 109.811C42.1532 112.294 42.5367 114.803 43.0256 117.274C43.4999 119.672 44.4232 122.111 44.6841 124.53C45.1894 129.222 44.596 134.177 44.4768 139.042C44.2453 148.609 44.0406 158.2 42.1999 166.614Z" fill="#221F20"/>
<path fill-rule="evenodd" clip-rule="evenodd" d="M60.2352 31.6546C60.7958 33.3485 61.5819 35.0052 62.101 36.63C62.5942 38.1745 62.3601 40.5041 64.1741 41.1908C65.83 40.7071 64.384 38.5442 64.3814 37.252C68.1492 33.764 73.9038 32.2627 79.515 30.6181C80.7148 30.7312 79.6601 33.0989 81.1734 32.8985C82.4769 32.3802 82.0295 30.8107 82.21 29.7888C82.9485 25.6185 84.2779 20.383 85.9329 15.5752C85.26 15.7143 84.5906 15.8602 83.9229 16.0131C82.4484 20.3761 81.2158 24.9836 80.5507 28.545C73.915 29.718 68.6148 32.2264 63.5513 34.9716C62.7385 32.7672 62.0129 30.6094 61.2709 28.3377C60.8874 27.1638 60.5807 25.9035 60.2387 24.6199C59.6029 24.9447 58.9732 25.2799 58.3452 25.6176C58.9646 27.581 59.5615 29.6178 60.2352 31.6546Z" fill="#221F20"/>
<path fill-rule="evenodd" clip-rule="evenodd" d="M44.2732 189.833C43.8905 191.854 43.5355 193.921 43.209 196.018C43.8197 196.502 44.4373 196.98 45.0592 197.452C45.9809 191.867 47.1315 186.536 48.0048 181.127C48.3149 179.203 48.8003 177.28 49.0413 175.322C49.24 173.711 49.8731 171.63 48.834 170.14C46.5881 170.446 47.3275 173.352 47.1755 174.7C46.5968 179.835 45.2398 184.727 44.2732 189.833Z" fill="#221F20"/>
<path fill-rule="evenodd" clip-rule="evenodd" d="M187.938 114.373C187.301 113.035 186.189 112.071 185.243 110.848C184.365 109.715 183.783 108.396 182.963 107.531C180.585 105.027 177.08 103.135 173.634 101.519C170.147 99.8843 166.475 98.333 162.854 96.7514C159.129 95.1231 155.309 94.0244 151.866 92.3979C145.367 89.3271 141.04 85.3286 136.732 80.1666C134.933 78.0098 133.195 75.6533 131.549 73.3254C128.224 68.6212 124.938 63.8462 121.599 59.4357C118.542 55.3975 115.459 50.1543 112.063 45.1314C110.271 42.4821 107.564 39.4623 105.428 36.839C104.364 35.5304 101.97 32.6824 101.697 31.449C101.247 29.4113 101.791 27.1663 101.697 25.0224C101.452 19.4458 100.986 14.2501 100.039 9.47418C99.4878 6.69451 99.1967 3.78614 97.9658 1.38913C96.6874 0.693778 94.9469 -0.394597 93.6124 0.145271C90.6712 1.33557 88.992 4.19644 87.3931 7.40109C84.5305 13.1384 81.699 22.4008 80.5519 28.5466C73.9163 29.7197 68.6161 32.2281 63.5525 34.9732C62.7397 32.7688 62.0141 30.6111 61.2721 28.3393C60.5578 26.1539 60.1241 23.674 59.199 21.2908C58.5581 19.6401 57.3764 17.954 56.0894 15.9008C55.071 14.276 53.9757 11.4436 51.9432 11.5473C49.4797 11.6725 47.1457 18.5466 46.5532 20.4616C43.1948 31.3151 41.8792 46.2793 43.6508 58.6065C42.1263 61.1823 41.9103 65.3121 41.5778 69.1792C40.815 78.0443 41.0828 85.2949 41.1631 92.8125C41.2262 98.7519 40.9792 104.422 41.7851 109.812C42.1565 112.294 42.54 114.804 43.0289 117.275C43.5031 119.673 44.4265 122.111 44.6874 124.531C45.1279 128.622 44.734 132.912 44.5466 137.168H46.4271C46.4659 135.122 46.5048 133.054 46.5532 130.957C47.2598 131.336 47.4887 132.334 47.797 133.03C48.3395 134.254 48.8681 135.713 49.44 137.168H51.6184C51.1114 136.023 50.6104 134.854 50.0774 133.652C47.4446 127.714 45.7455 121.418 44.4801 113.751C43.8219 109.763 43.1645 106.509 43.0289 101.727C42.9987 100.651 43.2388 99.3876 43.2362 98.4098C43.2086 86.9508 42.1712 75.1497 44.2728 63.5819C44.8835 62.6283 44.5665 65.9996 46.3459 65.2404C47.1976 63.4109 45.7913 61.5468 45.5166 59.8503C45.1176 57.3911 45.3283 54.5 45.102 51.7653C43.9273 37.5706 46.4141 22.2315 51.9432 13.4131C53.1007 14.4004 53.999 15.7626 54.8455 17.1446C57.2711 21.1077 58.4925 26.3889 60.2356 31.6563C60.7962 33.3502 61.5822 35.0069 62.1014 36.6317C62.5946 38.1761 62.3605 40.5058 64.1745 41.1925C65.8303 40.7088 64.3844 38.5458 64.3818 37.2536C68.1496 33.7656 73.9042 32.2644 79.5153 30.6197C80.7151 30.7329 79.6605 33.1005 81.1738 32.9001C82.4773 32.3819 82.0298 30.8123 82.2104 29.7905C83.3981 23.0806 86.1164 13.6117 89.2589 7.6084C90.3265 5.56813 93.3584 -0.0568566 96.3074 2.42567C97.4104 3.35424 97.3647 6.47338 97.7585 8.64495C98.5912 13.2248 99.03 16.3275 99.417 21.9127C99.5483 23.8079 100.56 27.3486 99.8316 28.9613C99.1225 30.5325 98.9963 27.5775 97.5512 28.9613C97.502 31.0914 99.6269 32.0044 100.868 33.5221C101.744 34.5932 102.409 35.8862 103.356 37.0463C105.886 40.1482 108.816 43.4772 111.026 46.9971C115.502 54.1251 120.263 61.083 125.331 67.9354C126.171 69.0713 127.203 70.1121 128.026 71.2523C130.42 74.571 132.722 78.2084 135.49 81.4105C137.292 83.4965 138.909 85.9177 140.879 87.6298C144.581 90.8456 149.222 93.6184 154.147 95.5075C156.314 96.3385 158.804 97.0572 161.195 97.9952C164.698 99.3686 168.309 101.203 171.768 102.763C175.378 104.392 178.838 106.176 181.304 108.568C182.319 109.553 183.113 111.121 184.206 112.507C186.997 116.042 189.053 121.312 189.388 127.226C189.606 131.068 188.818 134.299 187.579 137.168H189.562C190.859 133.764 191.504 129.918 191.047 125.359C190.701 121.907 189.425 117.493 187.938 114.373Z" fill="#221F20"/>
<path fill-rule="evenodd" clip-rule="evenodd" d="M181.305 171.791C179.082 166.917 176.92 162.063 174.878 157.279C171.568 159.691 168.986 162.725 165.55 164.95C163.882 166.029 161.878 166.859 159.951 167.851C158.105 168.805 156.237 169.952 154.355 170.754C153.108 171.285 151.763 171.403 150.416 171.79C149.141 172.156 147.911 172.829 146.685 173.241C140.862 175.197 134.182 176.538 128.027 177.802C121.832 179.074 112.788 179.722 105.223 178.631C101.62 178.111 98.5066 176.702 95.0653 175.522C91.5263 174.308 88.3761 173.417 85.3217 171.997C80.6875 169.841 76.4774 167.553 72.6759 164.742C71.4294 163.82 70.1838 162.835 68.9443 161.839C66.543 159.91 63.9594 157.82 61.8958 155.62C59.7804 153.365 57.9967 150.723 56.0911 148.157C54.1312 145.518 52.0849 142.861 50.7011 140.072C49.5834 137.819 48.7135 135.088 47.7988 133.023C47.4904 132.327 47.2615 131.329 46.5549 130.95C46.3692 139.036 46.3148 146.736 45.933 154.169C45.4078 164.397 42.375 173.241 40.3356 181.74C39.5531 185 38.6504 188.187 37.6778 191.292C39.4649 192.929 41.31 194.502 43.2095 196.01C43.5351 193.914 43.891 191.846 44.2737 189.825C45.2402 184.719 46.5972 179.827 47.176 174.692C47.328 173.342 46.5886 170.437 48.8345 170.131C49.8736 171.621 49.2404 173.703 49.0418 175.313C48.8008 177.271 48.3162 179.194 48.0052 181.118C47.1319 186.527 45.9805 191.858 45.0597 197.443C62.2214 210.439 83.6045 218.153 106.791 218.153C138.23 218.153 166.354 203.974 185.13 181.667C183.967 178.281 182.754 174.97 181.305 171.791Z" fill="black"/>
<defs>
<linearGradient id="paint0_linear_265_9054" x1="32.1439" y1="-10.7663" x2="137.342" y2="207.98" gradientUnits="userSpaceOnUse">
<stop stop-color="white"/>
<stop offset="1" stop-color="#C490DD"/>
</linearGradient>
</defs>
</svg>
